X: 3
T: Apples In Winter
R: jig
M: 6/8
L: 1/8
K: Edor
A|BEE dEE|BAG FEF|DED FDF|AFA d2c|BEE BAB|def gfe|fdB AGF|GEE E2:|


Tune 299	Setting 30117

